X: 8367
T: County Limerick Duck Hunt, The
R: jig
M: 6/8
K: Dmajor
FG|A2A ABG|AdB AFD|GBd BAF|FEE EFG|A2A ABG|
AdB AFD|dFB AFD|EDD D2A|d2d dcd|eAA ABc|d2d dcd|
eAA ABc|d2d dcc|cBB BAc|dFB AFD|EDD D2||

